svgs/sharp-solid/gun.svg

<svg xmlns="http://www.w3.org/2000/svg" viewBox="0 0 576 512"><!--! Font Awesome Pro 6.5.2 by @fontawesome - https://fontawesome.com License - https://fontawesome.com/license (Commercial License) Copyright 2024 Fonticons, Inc. --><path d="M528 32V56v8h48V208H480l-32 32H400.9l-34.3 96.1L360.9 352H344 224L192 480H32L92 240H0V64H480V56 32h48zM327.1 304l22.9-64H252l-16 64h91.1zM480 128H64v32H480V128z"/></svg>

<svg xmlns="http://www.w3.org/2000/svg" viewBox="0 0 576 512"><!--! Font Awesome Pro 6.6.0 by @fontawesome - https://fontawesome.com License - https://fontawesome.com/license (Commercial License) Copyright 2024 Fonticons, Inc. --><path d="M528 32l0 24 0 8 48 0 0 144-96 0-32 32-47.1 0-34.3 96.1L360.9 352 344 352l-120 0L192 480 32 480 92 240 0 240 0 64l480 0 0-8 0-24 48 0zM327.1 304l22.9-64L252 240l-16 64 91.1 0zM480 128L64 128l0 32 416 0 0-32z"/></svg>
